icons/modern/cup-with-straw.svg

<svg width="32" height="32" viewBox="0 0 32 32" fill="none" xmlns="http://www.w3.org/2000/svg">
<path fill-rule="evenodd" clip-rule="evenodd" d="M15.25 2.75C15.25 2.33579 15.5858 2 16 2H20V3.5H16.75V8C16.75 8.41421 16.4142 8.75 16 8.75C15.5858 8.75 15.25 8.41421 15.25 8V2.75Z" fill="url(#paint0_linear_18_31587)"/>
<path fill-rule="evenodd" clip-rule="evenodd" d="M15.4461 2.24429C15.5833 2.09417 15.7806 2 16 2H20V3.5H16.75L15.4461 2.24429Z" fill="url(#paint1_linear_18_31587)"/>
<path fill-rule="evenodd" clip-rule="evenodd" d="M15.4461 2.24429C15.5833 2.09417 15.7806 2 16 2H20V3.5H16.75L15.4461 2.24429Z" fill="url(#paint2_radial_18_31587)"/>
<ellipse cx="20" cy="2.75" rx="0.5" ry="0.75" fill="url(#paint3_linear_18_31587)"/>
<path d="M8.58333 18L9.5 29C9.56505 29.5504 10 30 10.5 30H21.5C22 30 22.4591 29.5558 22.5 29L23.4167 18L23.1839 17.8589H8.78146L8.58333 18Z" fill="url(#paint4_linear_18_31587)"/>
<path d="M8.58333 18L9.5 29C9.56505 29.5504 10 30 10.5 30H21.5C22 30 22.4591 29.5558 22.5 29L23.4167 18L23.1839 17.8589H8.78146L8.58333 18Z" fill="url(#paint5_linear_18_31587)"/>
<path d="M8.58333 18L9.5 29C9.56505 29.5504 10 30 10.5 30H21.5C22 30 22.4591 29.5558 22.5 29L23.4167 18L23.1839 17.8589H8.78146L8.58333 18Z" fill="url(#paint6_linear_18_31587)"/>
<path fill-rule="evenodd" clip-rule="evenodd" d="M23.4167 18H8.58333L8 11H24L23.4167 18Z" fill="url(#paint7_linear_18_31587)"/>
<path fill-rule="evenodd" clip-rule="evenodd" d="M23.4167 18H8.58333L8 11H24L23.4167 18Z" fill="url(#paint8_linear_18_31587)"/>
<path d="M11.5 8L11 9V10H21V9L20.5 8C20.2627 7.5088 20 7 19 7H13C12 7 11.7464 7.51608 11.5 8Z" fill="url(#paint9_radial_18_31587)"/>
<path d="M11.5 8L11 9V10H21V9L20.5 8C20.2627 7.5088 20 7 19 7H13C12 7 11.7464 7.51608 11.5 8Z" fill="url(#paint10_linear_18_31587)"/>
<path d="M8 10H24" stroke="#D1CFD9" stroke-width="2" stroke-linecap="round" stroke-linejoin="round"/>
<path d="M8 10H24" stroke="url(#paint11_radial_18_31587)" stroke-width="2" stroke-linecap="round" stroke-linejoin="round"/>
<path d="M8 10H24" stroke="url(#paint12_radial_18_31587)" stroke-width="2" stroke-linecap="round" stroke-linejoin="round"/>
<path d="M8 10H24" stroke="url(#paint13_linear_18_31587)" stroke-width="2" stroke-linecap="round" stroke-linejoin="round"/>
<defs>
<linearGradient id="paint0_linear_18_31587" x1="15.25" y1="5.375" x2="16.8438" y2="5.375" gradientUnits="userSpaceOnUse">
<stop stop-color="#C63344"/>
<stop offset="0.294118" stop-color="#D92354"/>
<stop offset="0.6875" stop-color="#EE466D"/>
<stop offset="1" stop-color="#F34459"/>
</linearGradient>
<linearGradient id="paint1_linear_18_31587" x1="17.7231" y1="2" x2="17.7231" y2="3.5" gradientUnits="userSpaceOnUse">
<stop stop-color="#E43356"/>
<stop offset="0.5" stop-color="#DE2F5E"/>
<stop offset="1" stop-color="#CD3047"/>
</linearGradient>
<radialGradient id="paint2_radial_18_31587" cx="0" cy="0" r="1" gradientUnits="userSpaceOnUse" gradientTransform="translate(15.625 2.07812) rotate(134.326) scale(0.939191 1.1541)">
<stop stop-color="#CD2E4A"/>
<stop offset="1" stop-color="#D82453" stop-opacity="0"/>
</radialGradient>
<linearGradient id="paint3_linear_18_31587" x1="20" y1="2" x2="20" y2="3.5" gradientUnits="userSpaceOnUse">
<stop offset="0.0729167" stop-color="#980F2C"/>
<stop offset="0.5625" stop-color="#A22A44"/>
<stop offset="1" stop-color="#A60B2E"/>
</linearGradient>
<linearGradient id="paint4_linear_18_31587" x1="8.58333" y1="23" x2="23.4167" y2="23" gradientUnits="userSpaceOnUse">
<stop stop-color="#A8A1B5"/>
<stop offset="0.297753" stop-color="#C3B2DA"/>
<stop offset="0.592697" stop-color="#EFE3FF"/>
<stop offset="0.820225" stop-color="#F6EDFF"/>
<stop offset="1" stop-color="#E7E3F2"/>
</linearGradient>
<linearGradient id="paint5_linear_18_31587" x1="16" y1="29.125" x2="16" y2="30" gradientUnits="userSpaceOnUse">
<stop stop-color="#CDA8F6" stop-opacity="0"/>
<stop offset="1" stop-color="#C99BF7"/>
</linearGradient>
<linearGradient id="paint6_linear_18_31587" x1="23.0313" y1="23.25" x2="22.0938" y2="23.1875" gradientUnits="userSpaceOnUse">
<stop stop-color="#D9D5E7"/>
<stop offset="0.723451" stop-color="#E8E5F1" stop-opacity="0"/>
</linearGradient>
<linearGradient id="paint7_linear_18_31587" x1="8" y1="14.5" x2="24" y2="14.5" gradientUnits="userSpaceOnUse">
<stop stop-color="#BB454C"/>
<stop offset="0.167969" stop-color="#BF304E"/>
<stop offset="0.34375" stop-color="#D31F55"/>
<stop offset="0.546875" stop-color="#ED2B64"/>
<stop offset="0.863281" stop-color="#FF3669"/>
<stop offset="1" stop-color="#FF4D58"/>
</linearGradient>
<linearGradient id="paint8_linear_18_31587" x1="16" y1="10.3125" x2="16" y2="12.375" gradientUnits="userSpaceOnUse">
<stop stop-color="#BE1E4E"/>
<stop offset="1" stop-color="#C21E51" stop-opacity="0"/>
</linearGradient>
<radialGradient id="paint9_radial_18_31587" cx="0" cy="0" r="1" gradientUnits="userSpaceOnUse" gradientTransform="translate(19.5 7.9375) rotate(82.4927) scale(8.13221 9.14813)">
<stop stop-color="white"/>
<stop offset="1" stop-color="#9C9DA0"/>
</radialGradient>
<linearGradient id="paint10_linear_18_31587" x1="16" y1="7" x2="16" y2="7.25" gradientUnits="userSpaceOnUse">
<stop stop-color="#C4C2C3"/>
<stop offset="1" stop-color="#C8C7CB" stop-opacity="0"/>
</linearGradient>
<radialGradient id="paint11_radial_18_31587" cx="0" cy="0" r="1" gradientUnits="userSpaceOnUse" gradientTransform="translate(22.125 9.625) rotate(90) scale(0.875 7.90625)">
<stop stop-color="white"/>
<stop offset="1" stop-color="white" stop-opacity="0"/>
</radialGradient>
<radialGradient id="paint12_radial_18_31587" cx="0" cy="0" r="1" gradientUnits="userSpaceOnUse" gradientTransform="translate(7.4375 9.5625) rotate(99.4623) scale(2.66121 8.56552)">
<stop stop-color="#9E9DA4"/>
<stop offset="1" stop-color="#A2A2A6" stop-opacity="0"/>
</radialGradient>
<linearGradient id="paint13_linear_18_31587" x1="16" y1="10" x2="16" y2="11" gradientUnits="userSpaceOnUse">
<stop stop-color="#CBB7E4" stop-opacity="0"/>
<stop offset="1" stop-color="#BE90CC"/>
</linearGradient>
</defs>
</svg>

<svg width="32" height="32" fill="none" xmlns="http://www.w3.org/2000/svg"><path fill-rule="evenodd" clip-rule="evenodd" d="M15.25 2.75A.75.75 0 0 1 16 2h4v1.5h-3.25V8a.75.75 0 0 1-1.5 0V2.75Z" fill="url(#a)"/><path fill-rule="evenodd" clip-rule="evenodd" d="M15.446 2.244A.748.748 0 0 1 16 2h4v1.5h-3.25l-1.304-1.256Z" fill="url(#b)"/><path fill-rule="evenodd" clip-rule="evenodd" d="M15.446 2.244A.748.748 0 0 1 16 2h4v1.5h-3.25l-1.304-1.256Z" fill="url(#c)"/><ellipse cx="20" cy="2.75" rx=".5" ry=".75" fill="url(#d)"/><path d="M8.583 18 9.5 29c.065.55.5 1 1 1h11c.5 0 .96-.444 1-1l.917-11-.233-.141H8.78L8.583 18Z" fill="url(#e)"/><path d="M8.583 18 9.5 29c.065.55.5 1 1 1h11c.5 0 .96-.444 1-1l.917-11-.233-.141H8.78L8.583 18Z" fill="url(#f)"/><path d="M8.583 18 9.5 29c.065.55.5 1 1 1h11c.5 0 .96-.444 1-1l.917-11-.233-.141H8.78L8.583 18Z" fill="url(#g)"/><path fill-rule="evenodd" clip-rule="evenodd" d="M23.417 18H8.583L8 11h16l-.583 7Z" fill="url(#h)"/><path fill-rule="evenodd" clip-rule="evenodd" d="M23.417 18H8.583L8 11h16l-.583 7Z" fill="url(#i)"/><path d="M11.5 8 11 9v1h10V9l-.5-1c-.237-.491-.5-1-1.5-1h-6c-1 0-1.254.516-1.5 1Z" fill="url(#j)"/><path d="M11.5 8 11 9v1h10V9l-.5-1c-.237-.491-.5-1-1.5-1h-6c-1 0-1.254.516-1.5 1Z" fill="url(#k)"/><path d="M8 10h16" stroke="#D1CFD9" stroke-width="2" stroke-linecap="round" stroke-linejoin="round"/><path d="M8 10h16" stroke="url(#l)" stroke-width="2" stroke-linecap="round" stroke-linejoin="round"/><path d="M8 10h16" stroke="url(#m)" stroke-width="2" stroke-linecap="round" stroke-linejoin="round"/><path d="M8 10h16" stroke="url(#n)" stroke-width="2" stroke-linecap="round" stroke-linejoin="round"/><defs><linearGradient id="a" x1="15.25" y1="5.375" x2="16.844" y2="5.375" gradientUnits="userSpaceOnUse"><stop stop-color="#C63344"/><stop offset=".294" stop-color="#D92354"/><stop offset=".688" stop-color="#EE466D"/><stop offset="1" stop-color="#F34459"/></linearGradient><linearGradient id="b" x1="17.723" y1="2" x2="17.723" y2="3.5" gradientUnits="userSpaceOnUse"><stop stop-color="#E43356"/><stop offset=".5" stop-color="#DE2F5E"/><stop offset="1" stop-color="#CD3047"/></linearGradient><linearGradient id="d" x1="20" y1="2" x2="20" y2="3.5" gradientUnits="userSpaceOnUse"><stop offset=".073" stop-color="#980F2C"/><stop offset=".563" stop-color="#A22A44"/><stop offset="1" stop-color="#A60B2E"/></linearGradient><linearGradient id="e" x1="8.583" y1="23" x2="23.417" y2="23" gradientUnits="userSpaceOnUse"><stop stop-color="#A8A1B5"/><stop offset=".298" stop-color="#C3B2DA"/><stop offset=".593" stop-color="#EFE3FF"/><stop offset=".82" stop-color="#F6EDFF"/><stop offset="1" stop-color="#E7E3F2"/></linearGradient><linearGradient id="f" x1="16" y1="29.125" x2="16" y2="30" gradientUnits="userSpaceOnUse"><stop stop-color="#CDA8F6" stop-opacity="0"/><stop offset="1" stop-color="#C99BF7"/></linearGradient><linearGradient id="g" x1="23.031" y1="23.25" x2="22.094" y2="23.188" gradientUnits="userSpaceOnUse"><stop stop-color="#D9D5E7"/><stop offset=".723" stop-color="#E8E5F1" stop-opacity="0"/></linearGradient><linearGradient id="h" x1="8" y1="14.5" x2="24" y2="14.5" gradientUnits="userSpaceOnUse"><stop stop-color="#BB454C"/><stop offset=".168" stop-color="#BF304E"/><stop offset=".344" stop-color="#D31F55"/><stop offset=".547" stop-color="#ED2B64"/><stop offset=".863" stop-color="#FF3669"/><stop offset="1" stop-color="#FF4D58"/></linearGradient><linearGradient id="i" x1="16" y1="10.313" x2="16" y2="12.375" gradientUnits="userSpaceOnUse"><stop stop-color="#BE1E4E"/><stop offset="1" stop-color="#C21E51" stop-opacity="0"/></linearGradient><linearGradient id="k" x1="16" y1="7" x2="16" y2="7.25" gradientUnits="userSpaceOnUse"><stop stop-color="#C4C2C3"/><stop offset="1" stop-color="#C8C7CB" stop-opacity="0"/></linearGradient><linearGradient id="n" x1="16" y1="10" x2="16" y2="11" gradientUnits="userSpaceOnUse"><stop stop-color="#CBB7E4" stop-opacity="0"/><stop offset="1" stop-color="#BE90CC"/></linearGradient><radialGradient id="c" cx="0" cy="0" r="1" gradientUnits="userSpaceOnUse" gradientTransform="rotate(134.326 7.375 4.33) scale(.93919 1.1541)"><stop stop-color="#CD2E4A"/><stop offset="1" stop-color="#D82453" stop-opacity="0"/></radialGradient><radialGradient id="j" cx="0" cy="0" r="1" gradientUnits="userSpaceOnUse" gradientTransform="matrix(1.0625 8.0625 -9.06971 1.19523 19.5 7.938)"><stop stop-color="#fff"/><stop offset="1" stop-color="#9C9DA0"/></radialGradient><radialGradient id="l" cx="0" cy="0" r="1" gradientUnits="userSpaceOnUse" gradientTransform="matrix(0 .875 -7.90625 0 22.125 9.625)"><stop stop-color="#fff"/><stop offset="1" stop-color="#fff" stop-opacity="0"/></radialGradient><radialGradient id="m" cx="0" cy="0" r="1" gradientUnits="userSpaceOnUse" gradientTransform="rotate(99.462 -.332 7.932) scale(2.66121 8.56552)"><stop stop-color="#9E9DA4"/><stop offset="1" stop-color="#A2A2A6" stop-opacity="0"/></radialGradient></defs></svg>
